icon/bts/zoom-reset.svg

<svg xmlns="http://www.w3.org/2000/svg" width="32" height="32" fill="none" stroke="currentcolor" stroke-linecap="round" stroke-linejoin="round" stroke-width="2"><circle cx="14" cy="14" r="12"/><path d="m23 23 7 7M9 12V9h3m4 0h3v3M9 16v3h3m7-3v3h-3"/></svg>

<svg id="i-zoom-reset" xmlns="http://www.w3.org/2000/svg" viewBox="0 0 32 32" fill="none" stroke="currentcolor" stroke-linecap="round" stroke-linejoin="round" stroke-width="2" height="1em" width="1em">
  <circle cx="14" cy="14" r="12"/>
  <path d="M23 23 L30 30"/>
  <path d="M9 12 L9 9 12 9 M16 9 L19 9 19 12 M9 16 L9 19 12 19 M19 16 L19 19 16 19"/>
</svg>
